dist/img/svg/products-arrow.svg

<svg width="95" height="160" viewBox="0 0 95 160" fill="none" xmlns="http://www.w3.org/2000/svg">
<path d="M0.434988 156.958C0.294943 148.654 1.5904 140.273 2.32599 132.084C2.37851 131.022 3.87257 130.509 4.62545 130.876C8.95563 133.147 13.6597 135.288 17.1267 138.691L17.3135 138.627C40.6758 132.475 56.0363 105.476 66.8449 85.89C79.375 63.4146 89.0046 37.9686 87.3877 12.0032C86.734 8.88667 86.0161 5.58337 84.9247 2.40847C84.4111 0.9144 86.4654 0.208199 87.1658 1.63807C87.3584 2.19834 87.551 2.75862 87.7436 3.3189C88.4906 3.0621 89.2435 3.42977 89.5645 4.36357C90.0839 6.48211 90.2299 8.72906 90.5626 10.9118C106.467 62.037 72.7983 128.115 24.5855 148.239C27.2935 150.649 29.8786 153.31 32.7735 155.657C34.1569 156.643 33.1119 158.464 31.7404 158.726C21.9532 160.629 12.0081 159.036 2.26175 158.628C1.45081 158.698 0.446987 158.207 0.434988 156.958ZM28.0289 155.826C26.0735 153.783 24.4921 151.612 22.3502 149.634C21.6553 148.828 21.9592 147.889 22.4553 147.509C22.2627 146.949 22.5077 146.447 23.0038 146.068C65.0711 123.254 90.8376 80.3571 90.0958 34.4607C86.9036 53.7261 78.3362 72.5422 69.1852 89.0529C62.4912 101.169 54.9158 112.544 45.9574 122.932C38.9131 130.992 29.4994 139.449 18.3231 139.741C19.397 141.043 17.4127 142.56 16.2805 141.696C12.7612 139.356 9.30616 137.203 5.72853 135.3C5.10443 141.988 4.29285 148.741 4.29323 155.423C12.1019 155.663 20.1675 156.649 28.0289 155.826Z" fill="white"/>
</svg>

<svg width="95" height="160" viewBox="0 0 95 160" fill="none" xmlns="http://www.w3.org/2000/svg"><path d="M.435 156.958c-.14-8.304 1.155-16.685 1.891-24.874.053-1.062 1.547-1.575 2.3-1.208 4.33 2.271 9.034 4.412 12.5 7.815l.188-.064c23.362-6.152 38.722-33.151 49.53-52.737 12.531-22.475 22.16-47.921 20.544-73.887-.654-3.116-1.372-6.42-2.463-9.595-.514-1.494 1.54-2.2 2.24-.77l.579 1.68c.747-.256 1.5.112 1.82 1.046.52 2.118.666 4.365.999 6.548 15.904 51.125-17.765 117.203-65.978 137.327 2.709 2.41 5.294 5.071 8.188 7.418 1.384.986.339 2.807-1.033 3.069-9.787 1.903-19.732.31-29.478-.098-.811.07-1.815-.421-1.827-1.67zm27.594-1.132c-1.956-2.043-3.537-4.214-5.679-6.192-.695-.806-.39-1.745.105-2.125-.192-.56.053-1.062.549-1.441 42.067-22.814 67.834-65.71 67.092-111.607-3.192 19.265-11.76 38.081-20.91 54.592-6.695 12.116-14.27 23.491-23.229 33.879-7.044 8.06-16.458 16.517-27.634 16.809 1.074 1.302-.91 2.819-2.043 1.955-3.519-2.34-6.974-4.493-10.551-6.396-.625 6.688-1.436 13.441-1.436 20.123 7.809.24 15.874 1.226 23.736.403z" fill="#fff"/></svg>
